X:7245
T:Hot Heels
R:reel
C:Brenda Stubbert
O:20th Century Cape Breton
S:Tune of the Month, June 2000
A:http://www.capebretonisland.com/Music/Stubbert
N:Contacts ...
N:Recordings and bookings
N:..... 
N:Tune books and related recordings
N:..... Cranford Publications http://www.cranfordpub.com
B:Previously Unpublished.
H:Copyrights:published by Stubbert Music (SOCAN)
Z:Paul Stewart Cranford - psc@cranfordpub.com
Q:333
L:1/8
M:C|
K:D
B|ADFA G=cBd|DFA=c GE=CB|ADFA GBdg|fage fdd:|!
a|d'afd afdf|ge=cG E=C=Ca|d'afd afdf|g=cge fdda|!
d'afd afdf|ge=cG E=C=CE|D=FEG FAGB|A=fe^c dDD|]!
